X: 3181
Q: "Strathspey."
M: C
L: 1/8
K: Gm
ud |\
f>ed>c B>AF>e | d>cB>A {^F}G2-G :|
|: ^f |\
g<dd>=e =f<cc>^f | g<dd>g d>ba>g |\
f>dd>c B>GF>e | d>cB>A {^F}G2-G :|


